src/assets/images/messager_facebook.svg

<svg fill="none" height="71" viewBox="0 0 72 71" width="72" xmlns="http://www.w3.org/2000/svg" xmlns:xlink="http://www.w3.org/1999/xlink"><clipPath id="a"><path d="m.820312 0h71v71h-71z"/></clipPath><g clip-path="url(#a)"><path d="m.820312 0v71h37.810588v-27.4271h-9.2423v-11.1955h9.2423v-9.3982c-.0005-1.6263.3194-3.2367.9414-4.7394.622-1.5026 1.5339-2.868 2.6837-4.0181 1.1498-1.1502 2.5149-2.0625 4.0173-2.685 1.5025-.6225 3.1128-.9429 4.7391-.9429h9.663v10.068h-6.9133c-1.0433 0-2.0438.4145-2.7815 1.1522s-1.1522 1.7383-1.1522 2.7816v7.7895h10.6737l-1.4762 11.1956h-9.1975v27.4193h21.9919v-71z" fill="#3a559f"/></g></svg>

<svg width="72" height="71" viewBox="0 0 72 71" fill="none" xmlns="http://www.w3.org/2000/svg">
<g clip-path="url(#clip0)">
<path d="M0.820312 0V71H38.6309V43.5729H29.3886V32.3774H38.6309V22.9792C38.6304 21.3529 38.9503 19.7425 39.5723 18.2398C40.1943 16.7372 41.1062 15.3718 42.256 14.2217C43.4058 13.0715 44.7709 12.1592 46.2733 11.5367C47.7758 10.9142 49.3861 10.5938 51.0124 10.5938H60.6754V20.6618H53.7621C52.7188 20.6618 51.7183 21.0763 50.9806 21.814C50.2429 22.5517 49.8284 23.5523 49.8284 24.5956V32.3851H60.5021L59.0259 43.5807H49.8284V71H71.8203V0H0.820312Z" fill="#3A559F"/>
</g>
<defs>
<clipPath id="clip0">
<rect width="71" height="71" fill="white" transform="translate(0.820312)"/>
</clipPath>
</defs>
</svg>
